X:122 
T:Mary Ellen's* (hornpipe) 
S:Grier MS
F:file ID: cre.4/122mary_e
B:CRE4.210: gan ainm
S:Grier MS
L:1/8
Q:150
M:4/4
R:hornpipe
K:Em
(3DEF|G2GF GABc|d^cde dBG2|A2AG ABcd|efge dcA2|
G2 GF GABc|d^cde dB G2|AcBd cBAB|G2 E2 E2:|
(3def|g2 G2 GB (3def|g2 G2 G2 (3efg|a2 A2 Ac (3efg|\
a2 A2 A3c|
BGBd cBcd|egfa g2 fg|edcB cBAF|D2G2G2:|

%%%

